svgs/sharp-thin/person-military-pointing.svg

<svg xmlns="http://www.w3.org/2000/svg" viewBox="0 0 576 512"><!--! Font Awesome Pro 6.6.0 by @fontawesome - https://fontawesome.com License - https://fontawesome.com/license (Commercial License) Copyright 2024 Fonticons, Inc. --><path d="M240 38.1l160-20L400 64 240 64l0-25.9zM400 2L224 24l0 40 0 16 16 0 160 0 16 0 0-16 0-47.9L416 0 400 2zm-2.7 238L240 418.8 240 304l0-16-16 0L72 288l-24 0 0-48 24 0 168 0 157.3 0zM224 440.4l0 55.6 0 16 16 0 160 0 16 0 0-16 0-94.8 0-31.5 16 27.1 29.4 49.8 8.1 13.8 13.8-8.1 41.3-24.4 13.8-8.1-8.1-13.8L434.4 243.7 422.8 224 400 224l-160 0L72 224l-24 0-16 0 0 16 0 48 0 16 16 0 24 0 136 0 16 0 0 16 0 119.6c0 .2 0 .5 0 .7zm16 7.6l160 0 0 48-160 0 0-48zm160-16l-150.3 0L414 245.3c.6-.7 1.1-1.5 1.4-2.3l5.2 8.8L516.5 414l-41.3 24.4-45.4-76.9-5.7-9.6L400 352l0 17.7 0 62.3zM241.6 96c-1 5.2-1.6 10.5-1.6 16c0 44.2 35.8 80 80 80s80-35.8 80-80c0-5.5-.6-10.8-1.6-16L382 96c1.3 5.1 2 10.5 2 16c0 35.3-28.7 64-64 64s-64-28.7-64-64c0-5.5 .7-10.9 2-16l-16.4 0z"/></svg>

<svg xmlns="http://www.w3.org/2000/svg" viewBox="0 0 576 512"><!--! Font Awesome Pro 6.5.2 by @fontawesome - https://fontawesome.com License - https://fontawesome.com/license (Commercial License) Copyright 2024 Fonticons, Inc. --><path d="M240 38.1l160-20V64H240V38.1zM400 2L224 24V64 80h16H400h16V64 16.1 0L400 2zm-2.7 238L240 418.8V304 288H224 72 48V240H72 240 397.3zM224 440.4V496v16h16H400h16V496 401.2 369.7l16 27.1 29.4 49.8 8.1 13.8 13.8-8.1 41.3-24.4 13.8-8.1-8.1-13.8L434.4 243.6 422.8 224H400 240 72 48 32v16 48 16H48 72 208h16v16V439.6c0 .2 0 .5 0 .7zm16 7.6H400v48H240V448zm160-16H249.7L414 245.3c.6-.7 1.1-1.5 1.4-2.3l5.2 8.8L516.5 414l-41.3 24.4-45.4-76.9-5.7-9.6H400v17.7V432zM241.6 96c-1 5.2-1.6 10.5-1.6 16c0 44.2 35.8 80 80 80s80-35.8 80-80c0-5.5-.6-10.8-1.6-16H382c1.3 5.1 2 10.5 2 16c0 35.3-28.7 64-64 64s-64-28.7-64-64c0-5.5 .7-10.9 2-16H241.6z"/></svg>
